src/assets/images/no-prompts.svg

<svg fill="none" height="21" viewBox="0 0 21 21" width="21" xmlns="http://www.w3.org/2000/svg"><path d="m10.5 3h8.5m-18 5h6m8.5 0h1.5m-14 5h5m8.5 0h2.5m-5 5h4m-17 0h3 6m-9-17 18.5 18.5" stroke="#999"/></svg>

<svg
        xmlns="http://www.w3.org/2000/svg"
        width="21"
        height="21"
        viewBox="0 0 21 21"
        fill="none"
>
    <path d="M10.5 3H19M1 8H7M15.5 8H17M3 13H8M16.5 13H19M14 18H18M1 18H4H10M1 1L19.5 19.5" stroke="#999999"/>
</svg>
